src/images/problem-3.svg

<svg width="470" height="360" fill="none" xmlns="http://www.w3.org/2000/svg"><mask id="a" maskUnits="userSpaceOnUse" x="0" y="0" width="470" height="360"><path fill="#fff" d="M0 0h470v360H0z"/></mask><g mask="url(#a)" stroke-width="2" stroke-linecap="round" stroke-linejoin="round"><path clip-rule="evenodd" d="M111.25 44h-22.5L77.5 63.485l11.25 19.486h22.5l11.25-19.486L111.25 44zM156.25 102.457h-22.5l-11.25 19.485 11.25 19.486h22.5l11.25-19.486-11.25-19.485zM246.25 102.457h-22.5l-11.25 19.485 11.25 19.486h22.5l11.25-19.486-11.25-19.485zM336.25 102.457h-22.5l-11.25 19.485 11.25 19.486h22.5l11.25-19.486-11.25-19.485zM201.25 44h-22.5L167.5 63.485l11.25 19.486h22.5l11.25-19.486L201.25 44zM291.25 44h-22.5L257.5 63.485l11.25 19.486h22.5l11.25-19.486L291.25 44zM381.25 44h-22.5L347.5 63.485l11.25 19.486h22.5l11.25-19.486L381.25 44zM111.25 160.913h-22.5L77.5 180.399l11.25 19.485h22.5l11.25-19.485-11.25-19.486zM156.25 219.37h-22.5l-11.25 19.486 11.25 19.486h22.5l11.25-19.486-11.25-19.486zM246.25 219.37h-22.5l-11.25 19.486 11.25 19.486h22.5l11.25-19.486-11.25-19.486zM336.25 219.37h-22.5l-11.25 19.486 11.25 19.486h22.5l11.25-19.486-11.25-19.486zM291.25 160.913h-22.5l-11.25 19.486 11.25 19.485h22.5l11.25-19.485-11.25-19.486zM381.25 160.913h-22.5l-11.25 19.486 11.25 19.485h22.5l11.25-19.485-11.25-19.486zM111.25 277.827h-22.5L77.5 297.312l11.25 19.486h22.5l11.25-19.486-11.25-19.485zM201.25 277.827h-22.5l-11.25 19.485 11.25 19.486h22.5l11.25-19.486-11.25-19.485zM291.25 277.827h-22.5l-11.25 19.485 11.25 19.486h22.5l11.25-19.486-11.25-19.485zM381.25 277.827h-22.5l-11.25 19.485 11.25 19.486h22.5l11.25-19.486-11.25-19.485zM189.999 195.134l13.719-23.76h-27.437l13.718 23.76z" stroke="#1A1A1A"/><path d="M151.523 172.913a39.064 39.064 0 012.152-7.263 38.906 38.906 0 013.587-6.817 39.502 39.502 0 015.023-6.149 39.384 39.384 0 016.148-5.022 38.955 38.955 0 0114.081-5.74M182.514 218.877a38.982 38.982 0 01-14.081-5.74 39.391 39.391 0 01-6.148-5.023 39.391 39.391 0 01-5.023-6.148 38.978 38.978 0 01-5.739-14.08M228.477 187.885a38.941 38.941 0 01-5.739 14.08 39.502 39.502 0 01-5.023 6.149 39.391 39.391 0 01-6.149 5.022 38.817 38.817 0 01-6.818 3.588 39.085 39.085 0 01-7.262 2.152M197.486 141.922a38.911 38.911 0 0114.08 5.74 39.391 39.391 0 016.149 5.022 39.445 39.445 0 015.023 6.149 38.956 38.956 0 015.739 14.08M213.518 180.399h32.209M134.273 180.399h32.209M190 124.673v32.209M190 203.916v32.21" stroke="#B2B2B2"/></g></svg>

<svg width="470" height="360" viewBox="0 0 470 360" fill="none" xmlns="http://www.w3.org/2000/svg">
<mask id="mask0" mask-type="alpha" maskUnits="userSpaceOnUse" x="0" y="0" width="470" height="360">
<rect width="470" height="360" fill="white"/>
</mask>
<g mask="url(#mask0)">
<path fill-rule="evenodd" clip-rule="evenodd" d="M111.25 44.0002H88.75L77.5 63.4852L88.75 82.9712H111.25L122.5 63.4852L111.25 44.0002Z" stroke="#1A1A1A" stroke-width="2" stroke-linecap="round" stroke-linejoin="round"/>
<path fill-rule="evenodd" clip-rule="evenodd" d="M156.25 102.457H133.75L122.5 121.942L133.75 141.428H156.25L167.5 121.942L156.25 102.457Z" stroke="#1A1A1A" stroke-width="2" stroke-linecap="round" stroke-linejoin="round"/>
<path fill-rule="evenodd" clip-rule="evenodd" d="M246.25 102.457H223.75L212.5 121.942L223.75 141.428H246.25L257.5 121.942L246.25 102.457Z" stroke="#1A1A1A" stroke-width="2" stroke-linecap="round" stroke-linejoin="round"/>
<path fill-rule="evenodd" clip-rule="evenodd" d="M336.25 102.457H313.75L302.5 121.942L313.75 141.428H336.25L347.5 121.942L336.25 102.457Z" stroke="#1A1A1A" stroke-width="2" stroke-linecap="round" stroke-linejoin="round"/>
<path fill-rule="evenodd" clip-rule="evenodd" d="M201.25 44.0002H178.75L167.5 63.4852L178.75 82.9712H201.25L212.5 63.4852L201.25 44.0002Z" stroke="#1A1A1A" stroke-width="2" stroke-linecap="round" stroke-linejoin="round"/>
<path fill-rule="evenodd" clip-rule="evenodd" d="M291.25 44.0002H268.75L257.5 63.4852L268.75 82.9712H291.25L302.5 63.4852L291.25 44.0002Z" stroke="#1A1A1A" stroke-width="2" stroke-linecap="round" stroke-linejoin="round"/>
<path fill-rule="evenodd" clip-rule="evenodd" d="M381.25 44.0002H358.75L347.5 63.4852L358.75 82.9712H381.25L392.5 63.4852L381.25 44.0002Z" stroke="#1A1A1A" stroke-width="2" stroke-linecap="round" stroke-linejoin="round"/>
<path fill-rule="evenodd" clip-rule="evenodd" d="M111.25 160.913H88.75L77.5 180.399L88.75 199.884H111.25L122.5 180.399L111.25 160.913Z" stroke="#1A1A1A" stroke-width="2" stroke-linecap="round" stroke-linejoin="round"/>
<path fill-rule="evenodd" clip-rule="evenodd" d="M156.25 219.37H133.75L122.5 238.856L133.75 258.342H156.25L167.5 238.856L156.25 219.37Z" stroke="#1A1A1A" stroke-width="2" stroke-linecap="round" stroke-linejoin="round"/>
<path fill-rule="evenodd" clip-rule="evenodd" d="M246.25 219.37H223.75L212.5 238.856L223.75 258.342H246.25L257.5 238.856L246.25 219.37Z" stroke="#1A1A1A" stroke-width="2" stroke-linecap="round" stroke-linejoin="round"/>
<path fill-rule="evenodd" clip-rule="evenodd" d="M336.25 219.37H313.75L302.5 238.856L313.75 258.342H336.25L347.5 238.856L336.25 219.37Z" stroke="#1A1A1A" stroke-width="2" stroke-linecap="round" stroke-linejoin="round"/>
<path fill-rule="evenodd" clip-rule="evenodd" d="M291.25 160.913H268.75L257.5 180.399L268.75 199.884H291.25L302.5 180.399L291.25 160.913Z" stroke="#1A1A1A" stroke-width="2" stroke-linecap="round" stroke-linejoin="round"/>
<path fill-rule="evenodd" clip-rule="evenodd" d="M381.25 160.913H358.75L347.5 180.399L358.75 199.884H381.25L392.5 180.399L381.25 160.913Z" stroke="#1A1A1A" stroke-width="2" stroke-linecap="round" stroke-linejoin="round"/>
<path fill-rule="evenodd" clip-rule="evenodd" d="M111.25 277.827H88.75L77.5 297.312L88.75 316.798H111.25L122.5 297.312L111.25 277.827Z" stroke="#1A1A1A" stroke-width="2" stroke-linecap="round" stroke-linejoin="round"/>
<path fill-rule="evenodd" clip-rule="evenodd" d="M201.25 277.827H178.75L167.5 297.312L178.75 316.798H201.25L212.5 297.312L201.25 277.827Z" stroke="#1A1A1A" stroke-width="2" stroke-linecap="round" stroke-linejoin="round"/>
<path fill-rule="evenodd" clip-rule="evenodd" d="M291.25 277.827H268.75L257.5 297.312L268.75 316.798H291.25L302.5 297.312L291.25 277.827Z" stroke="#1A1A1A" stroke-width="2" stroke-linecap="round" stroke-linejoin="round"/>
<path fill-rule="evenodd" clip-rule="evenodd" d="M381.25 277.827H358.75L347.5 297.312L358.75 316.798H381.25L392.5 297.312L381.25 277.827Z" stroke="#1A1A1A" stroke-width="2" stroke-linecap="round" stroke-linejoin="round"/>
<path fill-rule="evenodd" clip-rule="evenodd" d="M189.999 195.134L203.718 171.374H176.281L189.999 195.134Z" stroke="#1A1A1A" stroke-width="2" stroke-linecap="round" stroke-linejoin="round"/>
<path d="M151.523 172.913C152.001 170.443 152.718 168.009 153.675 165.65C154.631 163.291 155.828 161.006 157.262 158.833C158.698 156.66 160.372 154.598 162.285 152.684C164.198 150.771 166.26 149.097 168.433 147.662C170.607 146.227 172.892 145.031 175.251 144.074C177.61 143.118 180.044 142.4 182.514 141.922" stroke="#B2B2B2" stroke-width="2" stroke-linecap="round" stroke-linejoin="round"/>
<path d="M182.514 218.877C180.043 218.398 177.61 217.681 175.25 216.725C172.892 215.768 170.607 214.572 168.433 213.137C166.26 211.702 164.198 210.027 162.285 208.114C160.371 206.201 158.698 204.139 157.262 201.966C155.827 199.792 154.631 197.508 153.675 195.148C152.718 192.789 152 190.356 151.523 187.886" stroke="#B2B2B2" stroke-width="2" stroke-linecap="round" stroke-linejoin="round"/>
<path d="M228.477 187.885C227.999 190.355 227.282 192.788 226.325 195.148C225.369 197.507 224.172 199.791 222.738 201.965C221.302 204.138 219.628 206.2 217.715 208.114C215.801 210.027 213.74 211.701 211.566 213.136C209.393 214.572 207.108 215.767 204.748 216.724C202.39 217.68 199.957 218.398 197.486 218.876" stroke="#B2B2B2" stroke-width="2" stroke-linecap="round" stroke-linejoin="round"/>
<path d="M197.486 141.922C199.957 142.401 202.39 143.118 204.749 144.074C207.108 145.031 209.393 146.227 211.566 147.662C213.74 149.097 215.801 150.771 217.715 152.684C219.629 154.598 221.302 156.66 222.738 158.833C224.173 161.006 225.369 163.291 226.325 165.651C227.282 168.009 228 170.443 228.477 172.913" stroke="#B2B2B2" stroke-width="2" stroke-linecap="round" stroke-linejoin="round"/>
<path d="M213.518 180.399H245.727" stroke="#B2B2B2" stroke-width="2" stroke-linecap="round" stroke-linejoin="round"/>
<path d="M134.273 180.399H166.482" stroke="#B2B2B2" stroke-width="2" stroke-linecap="round" stroke-linejoin="round"/>
<path d="M190 124.673V156.882" stroke="#B2B2B2" stroke-width="2" stroke-linecap="round" stroke-linejoin="round"/>
<path d="M190 203.916V236.126" stroke="#B2B2B2" stroke-width="2" stroke-linecap="round" stroke-linejoin="round"/>
</g>
</svg>
